**kern	**kern	**dynam
*part1	*part1	*part1
*staff2	*staff1	*
*I"Piano	*	*
*clefF4	*clefG2	*
*k[]	*k[]	*
=1	=1	=1
(4FF#X 4F#X	8B] 8e] 8b]	.
.	4d#X 4a 4b	.
4EE 4E	.	.
.	[8c#X [8a [8b	.
=	=	=
4DD#X 4D#X	8c#] 8a] 8b]	.
.	4B 4f#X 4b	.
4CC#X 4C#X	.	.
.	[8B [8e [8b	.
=	=	=
4BBB 4BB	8B] 8e] 8b]	.
.	4B 4d#X 4b	.
4AAA) 4AA	.	.
.	8B 8d# 8f#X 8b	.
=	=	=
*	*^	*
*	*	*^	*
(8GGGnL 8GGn	4.b	(8eL	4.B\	p
8AAA 8AA	.	8f#X	.	.
8EEE 8EE	.	8gJ)	.	.
*	*v	*v	*v	*
8EEJ) 8E	8B 8g 8b	.
=	=	=
(4DD 4D	8B 8f#X 8b	.
.	4B 4f# 4b	.
4CC 4C	.	.
.	[8B [8e [8b	.
=	=	=
4BBB 4BB	8B] 8e] 8b]	.
.	4B 4d#X 4b	.
4AAA 4AA	.	.
.	[8B [8c#X [8b	.
=	=	=
4GGG#X 4GG#X	8BL] 8c#] 8b]	.
.	8BJ 8e 8b	.
!	!LO:TX:a:i:t=poco rit.	!
4GGGn^ 4GGn	4A#X: 4e: 4cc#X:	.
=	=	=
*-	*-	*-
!!!system-decoration: {(s1,s2)}
